X:1
T:James Gibb editions
T:Afflitti spirti miei - Festa
T:#
%%score [ 1 2 3 ]
L:1/8
Q:1/4=144
M:2/2
K:F
V:1 treble nm="Soprano I" snm="S I"
V:2 treble nm="Soprano II" snm="S II"
V:3 treble-8 nm="Tenor" snm="T"
V:1
"^Afflitti spirti miei""^Costanzo Festa\n(1490-1545)" d4 | B4 A4 | d6 c2 | B4 A4 | z8 | G4 A2 B2 | %6
w: Af-|flit- ti|spir- ti|mie- i,||sia- te con-|
[M:2/2][Q:1/4=120][Q:1/4=120][Q:1/4=120] c8 | =B4 z2 d2 | c2 _B2 G2 (B2- | B2 AG) F2 D2 | %10
w: ten-|ti Che|mor- te pon- ga|* * * fin ai|
 (E^F) G4 F2 | G2 G2 A2 B2 | c2 d2 (_e2 d2- | d2 c2) d4 | z2 d2 c2 A2 | B2 c2 d2 d2 | %16
w: longh' * af- fan-|ni. Et ri- pen-|san- do~ai dan\- *|* * ni,|Quest as- sai|più che quel- la|
 c2 B2 (A2 G2 | A4 G4- | G4 d4 | d2 d2 c2 B2 | A4 d4 | c3 B A4 | G4 d4 | d3 d d2 d2 | c4 d2 A2 | %25
w: vi pa- ven\- *|* ti.|* La|tol- la li- ber-|tà, la|rot- ta fe-|de, Che|v'ha ma- donn' e~A-|mo- re, I|
 B2 B2 A2 B2 | G4 A4 | d4 d3 d | d2 d2 c4 | B2 d2- dc B2- | B2 A2) B4 | z4 F4 | G2 G2 A4 | %33
w: per- si gior- ni~e|lho- re,|Vi son pur|tutt' in- an\-||* * ti,|Ca-|gion e- ter-|
 D2 d4 c2 | B2 A2 (G4- | G2 ^FE) F4 | d4 d4- | d2 B2 c2 d2 | _e4 d4 | z2 d2 c2 B2 | A2 A2 G2 (B2- | %41
w: na d'an- go-|scio- si pian\-|* * * ti;|Pe- r'o|* sia- te con-|ten- ti,|Che mor- te|pon- ga fin ai|
 B2 AG) A2 G2- | G2 ^F2 G2 B2 | %43
w: * * * lon- ghi|* sten- ti, ai|
[Q:1/4=118] A2[Q:1/4=116] G3[Q:1/4=113] (^F[Q:1/4=112] F[Q:1/4=112]E/[Q:1/4=111]F/) | %44
w: lon- ghi sten\- * * *|
[Q:1/4=107] G8- |[Q:1/4=103] G16 |] %46
w: ti.||
V:2
 B4 | G4 ^F4 | z2 B4 A2 | G4 ^F4 | B4 A2 (d2- | dc) (cB/c/) d2 B2 |[M:2/2] A2 G4 ^F2 | %7
w: Af-|flit- ti|spir- ti|mie- i,|sia- te con\-|* * ten\- * * ti, sia-|te con- ten-|
 G2 G2 A2 _B2 | c2 d2 _e2 d2 | d2 c2 d4 | G4 z4 | B4 c2 d2 | c2 B2 (G2 B2- | B2 AG) ^F2 A2 | %14
w: ti, Che mor- te|pon- ga fin ai|longh' af- fan-|ni.|Et ri- pen-|san- do~ai dan\- *|* * * ni, Quest|
 ^F2 D2 E2 =F2 | G2 E2 D4 | E2 (G2- G2 ^FE | ^F4 G4- | G4 B4 | B2 B2 A2 G2 | F4 (DEFG) | %21
w: as- sai più che|quel- la vi|pa- ven\- * * *|* ti.|* La|tol- la li- ber-|tà, la * * *|
 A2 G4 ^F2 | G4 G4 | B2 B2 A2 B2 | G4 A2 d2 | d3 d d2 d2 | c4 d4 | B4 B2 AG) | ^F2 G4 F2 | G4 B4 | %30
w: rot- ta fe-|de, Che|v'ha ma- donn' e~A-|mo- re, I|per- si gior- ni~e|lho- re,|Vi son pur *|tutt' in- an-|ti, Ca-|
 c2 c2 d4 | G4 z2 A2 | B2 B2 c4 | d4 B2 A2 | G2 F2 B4- | B4 A4 | B4 A4 | (B3 A) G2 F2 | %38
w: gion e- ter-|na, ca-|gion e- ter-|na d'an- go-|scio- si pian\-|* ti;|Pe- r'o|sia\- * te con-|
 (G2 A2) B2 c2 | B2 A2 A2 (G2- | G^F FE/F/) G4 | d4 c3 B | A4 G3 F | _E2 D2 C4 | D2 (_E4 DC | %45
w: ten\- * ti, Che|mor- te pon- ga|* * * * * fin|ai lon- ghi|sten- ti, ai|lon- ghi sten-|ti, sten\- * *|
 D2 _E2) D12 |] %46
w: * * ti.|
V:3
 G4 | G4 d4 | B6 F2 | G4 d4 | z2 g2 f2 d2 | _e4 d2 G2 |[M:2/2][K:treble-8] c3 B A4 | G4 z2 G2 | %8
w: Af-|flit- ti|spir- ti|mie- i,|sia- te con-|ten- ti, sia-|te con- ten-|ti, Che|
 A2 B2 c2 d2 | _e4 d4 | c2 B2 A4 | G4 z2 G2 | A2 B2 c2 d2 | _e4 d4- | d4 z2 d2 | G2 c2 B2 G2 | %16
w: mor- te pon- ga|fin ai|longh' af- fan-|ni. Et|ri- pen- san- do~ai|dan- ni,|* Quest|as- sai più che|
 c2 G2 d2 _e2 | d4 G4- | G4 G4 | B2 B2 F2 G2 | d4 G4 | c2 c2 d4 | G4 z2 G2 | g2 g2 f2 g2 | %24
w: quel- la vi pa-|ven- ti.|* La|tol- la li- ber-|tà, la|rot- ta fe-|de, Che|v'ha ma- donn' e~A-|
 _e4 d2 d2 | g2 g2 f2 g2 | _e4 d4 | G4 B3 c | d2 G2 A4 | G8 | z4 B4 | c2 c2 d4 | G4 z4 | B6 F2 | %34
w: mo- re, I|per- si gior- ni~e|lho- re,|Vi son pur|tutt' in- an-|ti,|Ca-|gion e- ter-|na|d'an- go-|
 G2 d2 (G3 A | B2 c2) d4 | G4 d4 | B2 _e4 d2 | c4 B4 | z2 B2 f2 g2 | d2 d2 G4 | B4 c4 | d4 (_e3 d | %43
w: scio- si pian\- *|* * ti;|Pe- r'o|sia- te con-|ten- ti,|Che mor- te|pon- ga fin|ai lon-|ghi sten\- *|
 c2 B2 A4) | G2 (c4 BA | B2 c2) G12 |] %46
w: |ti, sten\- * *|* * ti.|

